src/assets/images/view.svg

<svg width="16" height="16" viewBox="0 0 16 16" fill="none" xmlns="http://www.w3.org/2000/svg">
<path d="M15.4533 7.44011L15.4519 7.43845C15.0398 6.92184 14.0948 5.82505 12.7977 4.85586C11.4993 3.88564 9.83832 3.03611 7.99968 3.03611C6.16104 3.03611 4.50011 3.88561 3.20166 4.85582C1.9029 5.82627 0.957157 6.92466 0.545819 7.44047C0.274826 7.76662 0.277249 8.2343 0.544833 8.57367L0.544827 8.57368L0.545641 8.57468C0.956296 9.08187 1.90229 10.1769 3.20172 11.1459C4.50012 12.1141 6.16105 12.9636 7.99968 12.9636C9.83832 12.9636 11.4993 12.1141 12.7977 11.1438C14.0966 10.1732 15.0424 9.07445 15.4537 8.55838C15.7074 8.2495 15.7071 7.74924 15.4533 7.44011ZM7.99968 11.7561C6.48691 11.7561 5.06807 11.0225 3.92942 10.172C2.84501 9.36201 2.02502 8.4537 1.63351 7.9981C2.01625 7.53083 2.83628 6.6224 3.92306 5.81583C5.06351 4.96943 6.48657 4.24347 7.99968 4.24347C9.51274 4.24347 10.9317 4.96936 12.0701 5.81576C13.1557 6.62284 13.9761 7.53202 14.3662 7.99979C13.9762 8.46752 13.1557 9.3767 12.0701 10.1838C10.9317 11.0302 9.51274 11.7561 7.99968 11.7561Z" fill="#545F7D" stroke="#545F7D" stroke-width="0.2"/>
<path d="M8.00014 4.90818C6.29675 4.90818 4.9083 6.2967 4.9083 8.00002C4.9083 9.70334 6.29682 11.0919 8.00014 11.0919C9.70346 11.0919 11.092 9.70334 11.092 8.00002C11.092 6.29669 9.70346 4.90818 8.00014 4.90818ZM8.00014 9.88386C6.96726 9.88386 6.11646 9.0324 6.11646 8.00018C6.11646 6.96728 6.96732 6.1165 8.00014 6.1165C9.03296 6.1165 9.88382 6.96736 9.88382 8.00018C9.88382 9.033 9.03296 9.88386 8.00014 9.88386Z" fill="#545F7D" stroke="#545F7D" stroke-width="0.2"/>
</svg>

<svg xmlns="http://www.w3.org/2000/svg" width="16" height="16" fill="none"><path fill="#545F7D" stroke="#545F7D" stroke-width=".2" d="m15.453 7.44-.001-.002a15.094 15.094 0 0 0-2.654-2.582c-1.299-.97-2.96-1.82-4.798-1.82-1.839 0-3.5.85-4.798 1.82A15.097 15.097 0 0 0 .546 7.44a.896.896 0 0 0-.001 1.134 15.335 15.335 0 0 0 2.657 2.572c1.298.968 2.96 1.818 4.798 1.818s3.5-.85 4.798-1.82a15.086 15.086 0 0 0 2.656-2.586.917.917 0 0 0 0-1.118ZM8 11.756c-1.513 0-2.932-.733-4.07-1.584-1.085-.81-1.905-1.718-2.296-2.174a13.503 13.503 0 0 1 2.29-2.182C5.063 4.969 6.486 4.243 8 4.243c1.513 0 2.932.726 4.07 1.573A13.946 13.946 0 0 1 14.366 8a13.91 13.91 0 0 1-2.296 2.184c-1.138.846-2.557 1.572-4.07 1.572Z"/><path fill="#545F7D" stroke="#545F7D" stroke-width=".2" d="M8 4.908A3.097 3.097 0 0 0 4.908 8 3.097 3.097 0 0 0 8 11.092 3.097 3.097 0 0 0 11.092 8 3.097 3.097 0 0 0 8 4.908Zm0 4.976A1.894 1.894 0 0 1 6.116 8c0-1.033.851-1.883 1.884-1.883S9.884 6.966 9.884 8 9.033 9.884 8 9.884Z"/></svg>
